X: 7
T: 100 Watt Reels
R: reel
M: 4/4
K: Ddorian
d/2x/2D/2x/2 D/2D/2D A/2x/2D/2x/2 D/2D/2D|d/2x/2D/2x/2 D/2D/2D c2 Bc|d/2x/2D/2x/2 D/2D/2D AG ^FA|GE CE GA Bc|
d/2x/2D/2x/2 D/2D/2D A/2x/2D/2x/2 D/2D/2D|d/2x/2D/2x/2 D/2D/2D c2 Bc|d/2x/2B cA Bd cA|GE CE GA Bc|
d/2x/2D/2x/2 D/2D/2D A/2x/2D/2x/2 D/2D/2D|d/2x/2D/2x/2 D/2D/2D c2 Bc|d/2x/2D/2x/2 D/2D/2D AG ^FA|GE CE GA Bc|
d/2x/2D/2x/2 D/2D/2D A/2x/2D/2x/2 D/2D/2D|d/2x/2D/2x/2 D/2D/2D c2 Bc|d/2x/2B cA Bd cA|GE CE G2 =FG|
A2 F/2x/2A/2x/2 D/2x/2A/2x/2 F/2x/2A-|AG AB c2 Bc|A2 F/2x/2A/2x/2 D/2x/2A/2x/2 F/2x/2G-|GE CE G2 FG|
A3/2x/2 [A2F2] [A2-D2] [AF]A-|AG AB c2 Bc|d/2x/2A BA Bd cA|GE CE G2 FG|
A2 F/2x/2A/2x/2 D/2x/2A/2x/2 F/2x/2A-|AG AB c2 Bc|A2 F/2x/2A/2x/2 D/2x/2A/2x/2 FG-|GE CE G2 E/2x/2G/2x/2|
Ax [A2F2] [A2-D2] [AF]A-|AG AB c2 Bc|d/2x/2c GA Bd cA|GE CE G3x|
[a/2f/2]x/2d/2x/2 d/2d/2d a/2x/2d/2x/2 [f/2d/2]x/2d/2x/2|d/2d/2d f/2x/2d/2x/2 a/2x/2d/2x/2 [f/2d/2]x/2d/2x/2|[e/2^c/2]x/2^c/2x/2 ^c/2^c/2^c e/2x/2^c/2x/2 [g/2e/2]x/2^c/2x/2|e/2x/2^c/2x/2 [g/2e/2]x/2^c/2x/2 e/2x/2^c/2x/2 [g/2e/2]x/2^c/2x/2|
[f/2d/2]x/2d/2x/2 d/2d/2d a/2x/2d/2x/2 [f/2d/2]x/2d/2x/2|d/2d/2d f/2x/2d/2x/2 a/2x/2d/2x/2 [f/2d/2]x/2d/2x/2|[e/2^c/2]x/2^c/2x/2 ^c/2^c/2^c e/2x/2^c/2x/2 [g/2e/2]x/2^c/2x/2|e/2x/2^c/2x/2 [g/2^c/2]x/2^c/2x/2 [f2d2] x2|
[a/2f/2]x/2d/2x/2 d/2d/2d a/2x/2d/2x/2 [f/2d/2]x/2d/2x/2|d/2d/2d f/2x/2d/2x/2 a/2x/2d/2x/2 [f/2d/2]x/2d/2x/2|[g/2e/2]x/2^c/2x/2 ^c/2^c/2^c e/2x/2^c/2x/2 [g/2e/2]x/2^c/2x/2|e/2x/2^c/2x/2 [g/2e/2]x/2^c/2x/2 e/2x/2^c/2x/2 [g/2e/2]x/2^c/2x/2|
[a/2f/2]x/2d/2x/2 d/2d/2d a/2x/2d/2x/2 [f/2d/2]x/2d/2x/2|d/2d/2d f/2x/2d/2x/2 a/2x/2d/2x/2 [f/2d/2]x/2d/2x/2|[g/2e/2]x/2^c/2x/2 ^c/2^c/2^c e/2x/2^c/2x/2 [g/2e/2]x/2^c/2x/2|e/2x/2^c/2x/2 [g/2^c/2]x/2^c/2x/2 [f3-d3-][f/2d/2]||

